X: 208
T:Nancy's Fancy. JaW.207
M:2/4
L:1/16
Q:120
S:James Winder Ms, Lancashire, 1835-41
R:Set Tune
O:England
A:Wyresdale,Lancashire
H:1/8
Z:vmp.Chris Partington, Aug 2004
K:G
d2|g2b2 b4|c'2a2 a4|c'bag f2g2|agab a2d2|!
g2b2 b4|c'2a2 a4|c'bag fgaf|g2g2g4:|!
|:g2f2 e2d2|c2B2 A2G2|c'bag f2g2|agab a2d2|!
g2f2 e2d2|c2B2 A2G2|c'bag fgaf|g2g2g4:|!
|:bgbg c'ac'a|c'ac'a c'ac'a|c'bag f2g2|agfe dfac' |!
bgbg bgbg|c'ac'a c'ac'a|c'bag fgaf|g2g2 g4:|]
